X:1
T: Dyster Laddie
C:
R:Reel
Q: 232
K:D
M:4/4
L:1/8
|:A|GF ED BA GF|EF GA GA1/2B1/2 AG|GF ED FA dF|G2 E2 E2 A2|
GF ED BA GF|EF GA GA1/2B1/2 AG|GF ED FA dF|A2 F2 F2 fe|
d3e fe dc|Bc dB AF ED|d3e f2 ed|f2 e2 e2 fe|
d3e fe dc|dc BA d3A|GF ED FA dF|A2 F2 F2:|
